assets/visa.svg

<svg viewBox="0 0 24 16" fill="none" xmlns="http://www.w3.org/2000/svg">
<path d="M0 2C0 0.895431 0.895431 0 2 0H22C23.1046 0 24 0.895431 24 2V14C24 15.1046 23.1046 16 22 16H2C0.89543 16 0 15.1046 0 14V2Z" fill="#D8E3F3"/>
<path d="M20.655 5.01751H19.3977C19.0175 5.01751 18.7251 5.13447 18.5497 5.51459L16.152 10.9824H17.848C17.848 10.9824 18.1404 10.2514 18.1988 10.076C18.3743 10.076 20.0409 10.076 20.2749 10.076C20.3333 10.2807 20.4795 10.9532 20.4795 10.9532H22L20.655 5.01751ZM18.6667 8.84792C18.8129 8.49704 19.3099 7.18125 19.3099 7.18125C19.3099 7.21049 19.4561 6.83038 19.5146 6.6257L19.6316 7.15201C19.6316 7.15201 19.9532 8.58476 20.0117 8.87716H18.6667V8.84792Z" fill="#3362AB"/>
<path d="M16.269 9.02338C16.269 10.2514 15.1579 11.0702 13.4327 11.0702C12.7018 11.0702 12 10.924 11.6199 10.7485L11.8538 9.40349L12.0585 9.49121C12.5848 9.72513 12.9357 9.81285 13.5789 9.81285C14.0468 9.81285 14.5439 9.63741 14.5439 9.22806C14.5439 8.9649 14.3392 8.78946 13.6959 8.49706C13.0819 8.20466 12.2632 7.73683 12.2632 6.88887C12.2632 5.71928 13.4035 4.92981 15.0117 4.92981C15.6257 4.92981 16.152 5.04677 16.4737 5.19297L16.2398 6.47952L16.1228 6.36256C15.8304 6.2456 15.4503 6.12864 14.8947 6.12864C14.2807 6.15788 13.9883 6.42104 13.9883 6.65496C13.9883 6.91811 14.3392 7.12279 14.8947 7.38595C15.8304 7.82455 16.269 8.32162 16.269 9.02338Z" fill="#3362AB"/>
<path d="M2 5.07603L2.02924 4.95907H4.54386C4.89474 4.95907 5.15789 5.07603 5.24561 5.45614L5.80117 8.08772C5.24561 6.68421 3.95906 5.54386 2 5.07603Z" fill="#F9B50B"/>
<path d="M9.33918 5.01753L6.79532 10.9532H5.07017L3.60819 5.98244C4.66082 6.65496 5.53801 7.70759 5.85965 8.43858L6.03509 9.05262L7.61403 4.98829H9.33918V5.01753Z" fill="#3362AB"/>
<path d="M10.0117 4.98829H11.6199L10.5965 10.9532H8.98831L10.0117 4.98829Z" fill="#3362AB"/>
</svg>

<svg xmlns="http://www.w3.org/2000/svg" width="24" height="16" viewBox="0 0 24 16">
  <path fill="#e6e6e6" d="M0 2a2 2 0 0 1 2-2h20a2 2 0 0 1 2 2v12a2 2 0 0 1-2 2H2a2 2 0 0 1-2-2V2Z" />
  <path fill="#f9b50b" d="m2 5.076.03-.117h2.514c.35 0 .614.117.702.497L5.8 8.088C5.246 6.684 3.96 5.544 2 5.076Z" />
  <path fill="#3362ab"
    d="M20.655 5.018h-1.257c-.38 0-.673.116-.848.497l-2.398 5.467h1.696s.292-.73.35-.906h2.077c.058.205.205.877.205.877H22l-1.345-5.935Zm-1.988 3.83c.146-.351.643-1.667.643-1.667 0 .03.146-.35.205-.555l.117.526s.321 1.433.38 1.725h-1.345v-.03Zm-2.398.175c0 1.228-1.111 2.047-2.836 2.047-.731 0-1.433-.146-1.813-.322l.234-1.345.205.088c.526.234.877.322 1.52.322.468 0 .965-.176.965-.585 0-.263-.205-.439-.848-.73-.614-.293-1.433-.761-1.433-1.61 0-1.169 1.14-1.958 2.749-1.958.614 0 1.14.117 1.462.263L16.24 6.48l-.117-.117a3.142 3.142 0 0 0-1.228-.234c-.614.029-.907.292-.907.526 0 .263.351.468.907.731.935.439 1.374.936 1.374 1.637ZM9.34 5.018l-2.545 5.935H5.07l-1.462-4.97c1.053.672 1.93 1.725 2.252 2.456l.175.614 1.579-4.065h1.725v.03Zm.672-.03h1.608l-1.023 5.965H8.988l1.024-5.965Z" />
</svg>
